smiling-axolotl/src/assets/hero/Roblox.svg

<svg xmlns="http://www.w3.org/2000/svg" width="800" height="148" viewBox="0 0 800 148" fill="none">
<path d="M96.449 96.0107L119.477 138.156H76.7498L57.3066 102.139H38.8866V138.156H0V10.4827H71.1215C100.542 10.4827 119.221 26.8115 119.221 56.1765C119.221 75.0722 110.522 88.6083 96.449 96.0107ZM38.8866 43.6644V68.9438H66.5165C74.7032 68.9438 79.8198 64.0922 79.8198 56.1765C79.8198 48.2607 74.7032 43.6644 66.5165 43.6644H38.8866ZM243.044 147.594L126.64 116.186L157.852 0L216.053 15.7039L274.255 31.4077L243.044 147.594ZM221.042 62.0494L188.551 53.1123L179.853 85.5414L212.344 94.4813L221.042 62.0494ZM407.547 102.139C407.547 126.652 391.941 138.156 367.637 138.156H291.399V10.4827H365.079C389.383 10.4827 404.989 22.9947 404.989 44.9546C404.989 58.7434 399.872 67.9386 390.15 74.3223C401.151 79.1577 407.547 88.8636 407.547 102.139ZM329.262 41.1244V60.0201H354.576C361.484 60.0201 365.577 56.9559 365.577 50.3169C365.577 44.1886 361.484 41.1244 354.576 41.1244H329.262ZM329.262 107.515H357.66C364.311 107.515 368.162 103.94 368.162 97.8089C368.162 91.1725 364.325 88.1083 357.66 88.1083H329.262V107.515ZM426.735 10.4827H465.616V100.354H521.387V138.156H426.729L426.735 10.4827ZM664.406 74.3223C664.406 87.453 660.505 100.289 653.196 111.207C645.887 122.125 635.498 130.634 623.344 135.659C611.19 140.684 597.816 141.999 584.913 139.437C572.01 136.875 560.158 130.552 550.855 121.267C541.553 111.982 535.217 100.153 532.651 87.2744C530.084 74.3959 531.402 61.047 536.436 48.9158C541.471 36.7845 549.996 26.4158 560.935 19.1207C571.873 11.8256 584.734 7.9319 597.889 7.9319C606.628 7.91455 615.284 9.6195 623.362 12.9489C631.439 16.2784 638.778 21.1668 644.958 27.3337C651.138 33.5007 656.037 40.8248 659.374 48.8859C662.712 56.9471 664.421 65.5866 664.406 74.3088V74.3223ZM625.519 74.3223C625.519 58.488 612.983 45.976 597.889 45.976C582.795 45.976 570.257 58.488 570.257 74.3223C570.257 90.1565 582.795 102.666 597.889 102.666C612.983 102.666 625.519 90.1377 625.519 74.3088V74.3223ZM758.041 72.2768L800 138.156H753.681L730.667 100.607L706.874 138.156H659.801L703.548 73.8062L663.383 10.4827H709.688L730.922 44.9546L751.389 10.4827H797.439L758.041 72.2768Z" fill="currentColor"/>
</svg>

<svg xmlns="http://www.w3.org/2000/svg" width="800" height="148" fill="none"><path fill="currentColor" d="m96.449 96.01 23.028 42.146H76.75l-19.443-36.017h-18.42v36.017H0V10.483h71.122c29.42 0 48.099 16.328 48.099 45.694 0 18.895-8.699 32.431-22.772 39.834M38.887 43.665v25.28h27.63c8.186 0 13.303-4.852 13.303-12.768 0-7.915-5.117-12.512-13.303-12.512zm204.157 103.93L126.64 116.186 157.852 0l58.201 15.704 58.202 15.704zm-22.002-85.545-32.491-8.937-8.698 32.43 32.491 8.94zm186.505 40.09c0 24.513-15.606 36.017-39.91 36.017h-76.238V10.483h73.68c24.304 0 39.91 12.512 39.91 34.472 0 13.788-5.117 22.984-14.839 29.367 11.001 4.836 17.397 14.542 17.397 27.817m-78.285-61.015V60.02h25.314c6.908 0 11.001-3.064 11.001-9.703 0-6.128-4.093-9.193-11.001-9.193zm0 66.391h28.398c6.651 0 10.502-3.575 10.502-9.706 0-6.636-3.837-9.7-10.502-9.7h-28.398zm97.473-97.032h38.881v89.871h55.771v37.802h-94.658zm237.671 63.84a66.3 66.3 0 0 1-11.21 36.884 66.5 66.5 0 0 1-29.852 24.452 66.63 66.63 0 0 1-38.431 3.778 66.56 66.56 0 0 1-34.058-18.17 66.35 66.35 0 0 1-18.204-33.993 66.27 66.27 0 0 1 3.785-38.358 66.4 66.4 0 0 1 24.499-29.795 66.6 66.6 0 0 1 36.954-11.19 66.5 66.5 0 0 1 25.473 5.018 66.4 66.4 0 0 1 21.596 14.385 66.2 66.2 0 0 1 14.416 21.552 66.2 66.2 0 0 1 5.032 25.423zm-38.887 0c0-15.835-12.536-28.347-27.63-28.347s-27.632 12.512-27.632 28.346 12.538 28.344 27.632 28.344 27.63-12.528 27.63-28.357zm132.522-2.046L800 138.156h-46.319l-23.014-37.549-23.793 37.549h-47.073l43.747-64.35-40.165-63.323h46.305l21.234 34.472 20.467-34.472h46.05z"/></svg>
